**kern	**silbe
*ICvox	*
*D:	*
*M4/4	*
*clefG2	*
r;	.
=1	=1
1r	.
=2	=2
1r	.
=3	=3
1r	.
=4	=4
1r	.
=5	=5
1r	.
=6	=6
1r	.
=7	=7
1r	.
=8	=8
2r	.
4.r	.
8d	We
=9	=9
8f#	rent-
4f#	-ed
8f#	truck
4r	.
8f#	and
8d	a
=10	=10
8f#	se-
8f#	-mi
8d	to
4.f#	go.
4r	.
=11	=11
8f#	Trav-
8d	-el
8f#	down
8d	the
4f#	long
8f#	and
8d	the
=12	=12
8f#	wind-
4f#	-ing
4.f#	road.
4r	.
=13	=13
8f	Look
8f	on
8d	the
8f	map.
8r	.
8f	I
8f	think
8d	we've
=14	=14
8f	been
8f	there
8d	be-
4.f	-fore.
4r	.
=15	=15
8f	Close
8f	up
8d	the
4f	doors;
8r	.
4f	Let's
=16	=16
8f	roll
4f	once
4.f	more.
4r	.
=17	=17
8f#	Cop's
8d	on
8d	the
8f#	corn-
8f#	-er.
8r	.
8f#	look
8d	he's
=18	=18
8f#	start-
8f#	-ing
8d	to
4.f#	write.
4r	.
=19	=19
8a	I
8a	don't
8a	need
8a	no
8a	ti-
8a	-cket;
8a	so
8a	I
=20	=20
8a	screamed
8a	out
8b	of
4.f#	sight
4r	.
=21	=21
8f	Drove
4f	so
8f	fast
4r	.
8f	that
8d	my
=22	=22
8f	eyes
4f	can't
4.f	see
4r	.
=23	=23
8f	Look
8f	in
8d	the
8.f	mirror.
16d	Is
8d	he
4A	still
=24	=24
8f	foll-
8f	-ow-
8d	-ing
8f	me?.
8r	.
8a	Let
8a	it
8[a	roll
=25	=25
4a]	_
4r	.
2r	.
=26	=26
2r	.
8r	.
8a	down
8a	the
8[a	high-
=27	=27
8a]	_
8f#	-way!.
4r	.
2r	.
=28	=28
2r	.
8r	.
8a	Let
8a	it
8[a	roll
=29	=29
4a]	_
4r	.
2r	.
=30	=30
2r	.
8r	.
8a	down
8a	the
8[a	high-
=31	=31
8a]	_
8f#	-way!.
4r	.
4.r	.
8[a	Go!.
=32	=32
4a]	_
8r	.
4.a	Go!.
4r	.
=33	=33
1r	.
=34	=34
1r	.
=35	=35
1r	.
=36	=36
1r	.
=37	=37
8f#	Look
8f#	at
8f#	the
4f#	sign.
8r	.
8r	.
8f#	We're
=38	=38
8f#	in
8d	the
4f#	wrong
4f#	place.
4r	.
=39	=39
8f#	Move
4f#	out
4f#	boys;
8A	and
8A	let's
8d	get
=40	=40
8d	read-
8d	-y
8d	to
4.f#	race.
4r	.
=41	=41
8f	Four
8f	fif-
8d	-ty
4f	four's
8r	.
8f	com-
8d	-ing
=42	=42
8f	ov-
8f	-er
8d	the
4.f	hill.
8r	.
8d	The
=43	=43
8f	man
8f	on
8d	pa-
4f	-trol
8r	.
8d	gon-
8d	-na
=44	=44
8f	give
8f	us
8d	a
4.f	bill.
4r	.
=45	=45
4f#	Time's
4f#	real
8f#	short.
8f#	You
8f#	know
8d	the
=46	=46
8f#	dis-
8f#	-tance
8d	is
4.f#	long.
8r	.
8a	I'd
=47	=47
8a	like
8a	to
8a	have
8a	a
4a	jet;
8a	but
8a	it's
=48	=48
8a	not
8a	in
8b	the
4.f#	song.
4r	.
=49	=49
8f	Climb
8f	back
8f	in
8d	the
4f	cab,
8f	cross
8d	your
=50	=50
8f	fing-
8f	-ers
8d	for
8f	luck.
4.r	.
8d	We
=51	=51
8f	got-
8f	-ta
4f	keep
8f	mov-
8d	-ing|
8f	if
8f	we're
=52	=52
8f	gon-
8f	-nga
8f	make
8d	a
8f	buck.
8a	Let
8a	it
8[a	roll
=53	=53
4a]	_
4r	.
2r	.
=54	=54
2r	.
8r	.
8a	down
8a	the
8[a	high-
=55	=55
8a]	_
8f#	-way!.
4r	.
2r	.
=56	=56
2r	.
8r	.
8a	Let
8a	it
8[a	roll
=57	=57
8a]	_
4d	_
8d	_
2r	.
=58	=58
2r	.
8r	.
8a	down
8a	the
8[a	high-
=59	=59
8a]	_
8f#	-way!.
4r	.
4.r	.
8[a	Go!.
=60	=60
4a]	_
2.r	.
=61	=61
1r	.
=62	=62
1r	.
=63	=63
1r	.
=64	=64
1r	.
=65	=65
1r	.
=66	=66
1r	.
=67	=67
1r	.
=68	=68
1r	.
=69	=69
1r	.
=70	=70
1r	.
=71	=71
1r	.
=72	=72
1r	.
=73	=73
1r	.
=74	=74
1r	.
=75	=75
1r	.
=76	=76
1r	.
=77	=77
1r	.
=78	=78
1r	.
=79	=79
1r	.
=80	=80
1r	.
=81	=81
1r	.
=82	=82
1r	.
=83	=83
1r	.
=84	=84
1r	.
=85	=85
1r	.
=86	=86
1r	.
=87	=87
1r	.
=88	=88
1r	.
=89	=89
1r	.
=90	=90
1r	.
=91	=91
1r	.
=92	=92
1r	.
=93	=93
1r	.
=94	=94
1r	.
=95	=95
1r	.
=96	=96
1r	.
=97	=97
1r	.
=98	=98
2r	.
8r	.
8a	Let
8a	it
8[a	roll.
=99	=99
4a]	_
4r	.
2r	.
=100	=100
2r	.
8r	.
8a	Let
8a	it
8[a	roll.
=101	=101
4a]	_
4r	.
2r	.
=102	=102
2r	.
8r	.
8a	Let
8a	it
8[a	roll.
=103	=103
4a]	_
4r	.
2r	.
=104	=104
2r	.
8r	.
8a	Let
8a	it
8[a	roll.
=105	=105
4a]	_
4r	.
2r	.
=106	=106
2r	.
8r	.
8f#	Let
8g	it
8[a	roll
=107	=107
4a]	_
4r	.
2r	.
=108	=108
2r	.
8r	.
8a	down
8a	the
8[a	high-
=109	=109
8a]	_
8f#	-way!.
4r	.
2r	.
=110	=110
2r	.
8r	.
8f#	Let
8g	it
8[a	roll
=111	=111
8a]	_
8f#	_
4r	.
2r	.
=112	=112
2r	.
8r	.
8a	down
8a	the
8[a	high-
=113	=113
8a]	_
8f#	-way!.
4r	.
4.r	.
8[a	Go!.
=114	=114
4a]	_
8r	.
4[a	Go!.
16a]	_
16f#	let
8g	it
8[a	roll
=115	=115
4a]	_
4r	.
2r	.
=116	=116
2r	.
8r	.
8a	down
8a	the
8[a	high-
=117	=117
8a]	_
8f#	-way!.
4r	.
2r	.
=118	=118
2r	.
8r	.
8f#	Let
8g	it
8[a	roll
=119	=119
8a]	_
8f#	_
4r	.
2r	.
=120	=120
2r	.
8r	.
8a	down
8a	the
8[a	high-
=121	=121
8a]	_
8f#	-way!.
4r	.
4.r	.
8[a	Go!.
=122	=122
4a]	_
8r	.
4.a	Go!.
8r	.
8[a	Go!.
=123	=123
4a]	_
4.r	.
8r	.
4r	.
=124	=124
1r	.
=125	=125
1r	.
=126	=126
2r	.
8r	.
8a	Let
8a	it
8[a	roll
=127	=127
4a]	_
4r	.
2r	.
=128	=128
2r	.
8r	.
8a	down
8a	the
8[a	high-
=129	=129
8a]	_
8f#	-way!.
4r	.
2r	.
=130	=130
2r	.
8r	.
8f#	Let
8g	it
8[a	roll
=131	=131
8a]	_
16f#	_
16e	_
8d	_
8r	.
2r	.
=132	=132
2r	.
8r	.
8a	down
8a	the
8[a	high-
=133	=133
8a]	_
4f#	-way!.
4f#	_
4d	_
8[a	Go!.
=134	=134
4a]	_
8r	.
4.a	Go!.
8r	.
8[a	Go!.
=135	=135
4a]	_
2.r	.
r;	.
r;	.
*-	*-
!!!ENC: Nathaniel Condit-Schultz